public/favicon.svg

<svg xmlns="http://www.w3.org/2000/svg" viewBox="0 0 100 100">
  <circle cx="50" cy="50" r="50" fill="#000"/>
  <path d="M 75.66473149492018 23.573294629898406 L 81.79535558780842 18.55732946298984 L 81.79535558780842 18 L 55.043541364296075 18 L 55.043541364296075 18.55732946298984 L 58.38751814223512 23.573294629898406 L 49.191582002902756 60.44992743105951 C 45.56894049346879 74.75471698113208 44.26850507982583 80.04934687953556 41.38896952104499 80.04934687953556 C 35.258345428156744 80.04934687953556 40.92452830188679 57.29172714078375 43.989840348330915 49.3033381712627 L 43.52539912917271 48.93178519593614 L 24.20464441219158 70.11030478955007 C 26.52685050798258 78.47024673439768 31.264150943396224 82 38.230769230769226 82 C 46.776487663280115 82 64.79680696661829 67.23076923076923 66.09724238026125 61.750362844702465 Z" fill="#fff"/>
</svg>

<svg xmlns="http://www.w3.org/2000/svg" viewBox="0 0 100 100"><circle cx="50" cy="50" r="50"/><path fill="#fff" d="m75.665 23.573 6.13-5.016V18H55.044v.557l3.344 5.016-9.196 36.877c-3.623 14.305-4.923 19.6-7.803 19.6-6.13 0-.464-22.758 2.6-30.747l-.464-.371-19.32 21.178C26.527 78.47 31.265 82 38.23 82c8.545 0 26.566-14.77 27.866-20.25Z"/></svg>
